!!!COA:	Josquin des Prez
!!!CDT:	~1450-1521/08/27
!!!COM:	Comp&egrave;re, Loyset
!!!CDT2:	~1445///-1518///
!!!OPR:	Missa L'homme arm&eacute; quarti toni
!!!ONM:	3
!!!OTL:	Credo
!!!AGN:	Mass; Credo
!!!SCT:	NJE 6.1
!!!SCA:	New Josquin Edition 6.1
!!!voices:	4
!!!voices-OPR:	4
**kern	**kern	**kern	**kern
*staff4	*staff3	*staff2	*staff1
*Ivox	*Ivox	*Ivox	*Ivox
*I"Bassus	*I"Tenor	*I"Altus	*I"Superius
*I'B	*I'T	*I'A	*I'S
*>[A,B]	*>[A,B]	*>[A,B]	*>[A,B]
*>A	*>A	*>A	*>A
*clefF4	*clefGv2	*clefGv2	*clefG2
*k[]	*k[]	*k[]	*k[]
*M2/1	*M2/1	*M2/1	*M2/1
*met(C|)	*met(O2)	*met(C|)	*met(C|)
!!primary-mensuration: met(C|)
=1-	=1-	=1-	=1-
0E	0r	0r	0r
=2	=2.	=2	=2
0F	0r	0r	0r
=3	=3.	=3	=3
0E	0r	0B	0r
=4	=4	=4	=4
1C	[0E	0c	0r
1C	.	.	.
=5	=5.	=5	=5
1G	0E_	0B	0b
1G	.	.	.
=6	=6.	=6	=6
0C	0E]	1G	0cc
.	.	1A	.
=7	=7	=7	=7
0r	[0E	[0B	0b
=8	=8.	=8	=8
1r	0E_	1B]	1g
1AA	.	[1A	1a
=9	=9.	=9	=9
0E	0E]	2A/]	0b
.	.	4G#i/	.
.	.	4F#i/	.
.	.	1G#i	.
=10	=10	=10	=10
0AA	[0E	2.A/	1a
.	.	4B\	.
.	.	2c\	[1a
.	.	2A/	.
=11	=11.	=11	=11
0r	0E_	0B	2a/]
.	.	.	4g#i/
.	.	.	4f#i/
.	.	.	1g#i
=12	=12.	=12	=12
[0AA	0E]	0A	[0a
=13	=13	=13	=13
0AA]	[0A	1r	0a]
.	.	2c\	.
.	.	2d\	.
=14	=14.	=14	=14
0AA	0A_	1e	0r
.	.	1e	.
=15	=15.	=15	=15
1D	0A]	1d	2f/
.	.	.	2g/
1AA	.	2r	1a
.	.	[2c\	.
=16	=16	=16	=16
1A	0r	4c\]	1a
.	.	4d\	.
.	.	4e\	.
.	.	4f\	.
2E\	.	2e\	2g/
[2G\	.	[2d\	[2b\
=17	=17.	=17	=17
4G\]	0r	4d\]	4b\]
4A\	.	4c\	4a/
2F\	.	2A/	1a
1E	.	1B	.
.	.	.	2g#i/
=18	=18.	=18	=18
0AA	0A	1A	1a
.	.	1r	2e/
.	.	.	2f/
=19	=19	=19	=19
0E	[0G	1r	1.g
.	.	2B\	.
.	.	2c\	2g/
=20	=20.	=20	=20
1r	0G_	2d\	1g
.	.	2d\	.
1C	.	1e	1r
=21	=21.	=21	=21
2BB/	0G]	2d\	1.g
2C/	.	2c\	.
1GG	.	1B	.
.	.	.	2g/
=22	=22	=22	=22
[0D	[0F	1A	1a
.	.	1r	2d/
.	.	.	[2f/
=23	=23.	=23	=23
0D]	0F]	0r	4f/]
.	.	.	4e/
.	.	.	4d/
.	.	.	4c/
.	.	.	1d
=24	=24.	=24	=24
1G	[0E	1B	0e
1C	.	1c	.
=25	=25	=25	=25
1G	0E_	1B	1b
1C	.	2G/	1cc
.	.	2A/	.
=26	=26.	=26	=26
1r	0E_	1.B	1b
2r	.	.	2g/
2AA/	.	[2A/	2a/
=27	=27.	=27	=27
1E	0E]	2A/]	1b
.	.	2G/	.
1AA	.	2.A/	2a/
.	.	.	[2a/
.	.	4c\	.
=28	=28	=28	=28
1E	0r	1B	2a/]
.	.	.	2g#i/
1F	.	1A	1a
=29	=29.	=29	=29
2D\	0r	1r	2f/
1E	.	.	1g
.	.	2E/	.
4D\	.	2F/	4f/
4C/	.	.	4e/
=30	=30.	=30	=30
1BB	0r	1G	1d
1AA	.	1A	1c
=31	=31	=31	=31
0r	0r	2G/	2e/
.	.	2F/	2f/
.	.	1E	1g
=32	=32.	=32	=32
1r	0r	1F	1a
2C/	.	2E/	2g/
2D\	.	2F/	2f/
=33	=33.	=33	=33
1E	0r	1G	1e
1D	.	1A	1f
=34	=34	=34	=34
1r	0r	1A	2e/
.	.	.	2f/
1G	.	1B	1g
=35	=35.	=35	=35
2D\	0r	2A/	1a
1F	.	2A/	.
.	.	2A/	1r
2E\	.	2G/	.
=36	=36.	=36	=36
2D\	0r	2F/	0r
4C/	.	2G/	.
4BB/	.	.	.
2AA/	.	2.A/	.
2D\	.	.	.
.	.	4B-i\	.
=37	=37	=37	=37
2C/	0r	2A/	1r
2BB/	.	1G	.
1AA	.	.	1a
.	.	2F#i/	.
=38	=38.	=38	=38
2GG/	0r	1G	1b-i
2G\	.	.	.
2A\	.	2r	2a/
[2F\	.	[2c\	2a/
=39	=39.	=39	=39
2F\]	0r	2c\]	2a/
2G\	.	2B\	2g/
2D\	.	2A/	2f/
2E\	.	2G/	2g/
=40	=40	=40	=40
1F	0r	1c	1a
2r	.	2.d\	4a/
.	.	.	4g/
[2D\	.	.	4f/
.	.	4c\	4e/
=41	=41.	=41	=41
2D\]	0r	2B\	2d/
2C/	.	2c\	1g
1D	.	1A	.
.	.	.	2f#i/
=42	=42.	=42	=42
[0GG	[0B	1G	[0g
.	.	1r	.
=43	=43	=43	=43
0GG]	0B_	2.B\	0g]
.	.	4c\	.
.	.	1d	.
=44	=44.	=44	=44
0G	0B_	1B	0r
.	.	1d	.
=45	=45.	=45	=45
0E	0B]	[0e	2.e/
.	.	.	4f/
.	.	.	1g
=46	=46	=46	=46
0C	[0E	0e]	1e
.	.	.	1g
=47	=47.	=47	=47
1AA	0E_	1r	1a
1E	.	1B	1r
=48	=48.	=48	=48
1AA	0E_	1c	1a
1E	.	1B	1b
=49	=49	=49	=49
1AA	0E]	2r	1a
.	.	1c	.
2r	.	.	1a
[2D\	.	2A/	.
=50	=50.	=50	=50
2D\]	0r	1d	2f/
1G	.	.	2g/
.	.	2B\	2b\
[2F\	.	[2c\	[2a/
=51	=51.	=51	=51
2F\]	0r	4c\]	4a/]
.	.	4B\	4g/
2G\	.	4A/	1g
.	.	4G/	.
1D	.	1A	.
.	.	.	2f#i/
=52	=52	=52	=52
[0E	0B	0G	1g
.	.	.	1r
=53	=53.	=53	=53
0E]	0B	0r	2.e/
.	.	.	4f/
.	.	.	2g/
.	.	.	2g/
=54	=54.	=54	=54
0G	0B	2.B\	1g
.	.	4c\	.
.	.	2d\	1g
.	.	2d\	.
=55	=55	=55	=55
0D	[0A	1d	1f
.	.	1d	1r
=56	=56.	=56	=56
0F	0A_	1c	1a
.	.	1r	2a/
.	.	.	2f/
=57	=57.	=57	=57
1C	0A]	1e	1e
2D\	.	2d\	1f
2AA/	.	2c\	.
=58	=58	=58	=58
2.E\	[0G	1B	0r
4D\	.	.	.
2C/	.	1c	.
4BB/	.	.	.
4AA/	.	.	.
=59	=59.	=59	=59
2GG/	0G_	2B\	0r
1C	.	2c\	.
.	.	1d	.
2BB/	.	.	.
=60	=60.	=60	=60
0C	0G]	1e	2.e/
.	.	.	4f/
.	.	1e	1g
=61	=61	=61	=61
0r	[0F	2.f\	0a
.	.	8e\L	.
.	.	8d\J	.
.	.	2c\	.
.	.	2d\	.
=62	=62.	=62	=62
2.D\	0F_	2A/	1r
.	.	2.f\	.
4E\	.	.	.
1F	.	.	1a
.	.	4e\	.
.	.	4d\	.
.	.	4c\	.
=63	=63.	=63	=63
1BB-	0F]	1d	1b-
2.F\	.	[1c	1a
4G\	.	.	.
=64	=64	=64	=64
2A\	[0F	1c]	2.f/
2.A\	.	.	.
.	.	.	4g/
.	.	1c	2a/
4G\	.	.	.
4F\	.	.	[2a/
4E\	.	.	.
=65	=65.	=65	=65
1D	0F]	1d	4a/]
.	.	.	4g/
.	.	.	4f/
.	.	.	4e/
1D	.	1d	1f
=66	=66.	=66	=66
0C	0E	1.e	0g
.	.	4d\	.
.	.	4c\	.
=67	=67	=67	=67
0r	[0E	2B\	1r
.	.	2e\	.
.	.	2c\	2.e/
.	.	4B\	.
.	.	4A/	4f/
=68	=68.	=68	=68
1r	0E_	1B	1g
1AA	.	1A	1a
=69	=69.	=69	=69
0C	0E]	2r	1g
.	.	1e	.
.	.	.	1e
.	.	4d\	.
.	.	4c\	.
=70	=70	=70	=70
1E	0r	2B\	1r
.	.	2c\	.
1D	.	1d	2f/
.	.	.	2f/
=71	=71.	=71	=71
2G\	0r	2G/	2e/
2A\	.	1c	2f/
1G	.	.	1g
.	.	2B\	.
=72	=72.	=72	=72
0C	0e	0c	1e
.	.	.	[1g
=73	=73	=73	=73
1E	[0e	1B	1g]
1A	.	1c	1a
=74	=74.	=74	=74
2G\	0e_	1B	1r
2.E\	.	.	.
.	.	1B	1b
4F\	.	.	.
2G\	.	.	.
=75	=75.	=75	=75
2C/	0e]	2G/	1cc
2AA/	.	2A/	.
1E	.	1B	1b
=76	=76	=76	=76
2r	[0e	2E/	1b
1E	.	1B	.
.	.	.	2g/
2AA/	.	[2A/	2a/
=77	=77.	=77	=77
1E	0e_	2A/]	1b
.	.	2G/	.
2AA/	.	2A/	2cc\
2E\	.	2G/	[2b\
=78	=78.	=78	=78
2C/	0e]	1A	4b\]
.	.	.	4a/
2AA/	.	.	1a
1E	.	1B	.
.	.	.	2g#i/
=79	=79	=79	=79
0AA	[0e	0A	1a
.	.	.	2.e/
.	.	.	4f/
=80	=80.	=80	=80
1E	0e_	1r	1g
1AA	.	2.E/	1a
.	.	4F/	.
=81	=81.	=81	=81
1E	0e_	1G	2.g/
.	.	.	4f/
1AA	.	1A	1e
=82	=82	=82	=82
0C	0e]	2.G/	0e
.	.	4F/	.
.	.	1E	.
=83	=83.	=83	=83
1D	0r	2A/	1f
.	.	2A/	.
1AA	.	2A/	2e/
.	.	2A/	2f/
=84	=84.	=84	=84
2.E\	0r	1G	1g
4D\	.	.	.
2C/	.	2A/	2e/
4BB/	.	2A/	2f/
4AA/	.	.	.
=85	=85	=85	=85
1GG	[0d	0B-i	1g
[1G	.	.	2g/
.	.	.	2g/
=86	=86.	=86	=86
1G]	0d_	1B-i	1g
1D	.	2A/	2f/
.	.	[2F/	[2a/
=87	=87.	=87	=87
1r	0d]	2F/]	4a/]
.	.	.	4g/
.	.	2G/	1g
1D	.	1A	.
.	.	.	2f#i/
=88	=88	=88	=88
0G	0d	1G	[0g
.	.	1r	.
=89	=89.	=89	=89
1E	0e	1B	0g_
1C	.	1c	.
=90	=90.	=90	=90
0G	[0B	2d\	0g]
.	.	2d\	.
.	.	2d\	.
.	.	2d\	.
=91	=91	=91	=91
1G	0B]	1d	1r
2.E\	.	1e	2.G/
4F\	.	.	4A/
=92	=92.	=92	=92
2G\	0r	2d\	2B/
2A\	.	2c\	2c/
2G\	.	1B	2d/
4F\	.	.	2e/
4E\	.	.	.
=93	=93.	=93	=93
1D	1r	1d	1f
[1C	[1e	1e	1g
=94	=94	=94	=94
0C]	1e]	2r	1r
.	.	1c	.
.	1e	.	1e
.	.	2B\	.
=95	=95.	=95	=95
1D	0d	1A	1f
1GG	.	1G	2g/
.	.	.	2g/
=96	=96.	=96	=96
1G	1d	0B	2g/
.	.	.	2g/
1E	[1e	.	1g
=97	=97	=97	=97
1AA	1e]	1c	1a
[1E	1e	1B	2.g/
.	.	.	4f/
=98	=98.	=98	=98
1E]	0B	2.G/	0e
.	.	4A/	.
1E	.	2B\	.
.	.	[2e\	.
=99	=99.	=99	=99
1E	0r	2e\]	0g
.	.	4d\	.
.	.	4c\	.
1E	.	1B	.
=100	=100	=100	=100
0F	0r	1A	0a
.	.	2r	.
.	.	2A/	.
=101	=101.	=101	=101
1G	0r	1B-i	1r
1D	.	1A	1a
=102	=102.	=102	=102
2r	1r	1G	1b-i
1G	.	.	.
.	1r	2r	1a
2F\	.	[2c\	.
=103	=103	=103	=103
1G	0r	2c\]	1g
.	.	2B\	.
1D	.	2A/	2f/
.	.	2d\	[2a/
=104	=104.	=104	=104
1E	0r	2B\	4a/]
.	.	.	4g/
.	.	4A/	1g
.	.	4G/	.
1D	.	1A	.
.	.	.	2f#i/
=105	=105.	=105	=105
2E\	0e	2G/	0g
2C/	.	1c	.
1G	.	.	.
.	.	2B\	.
=106	=106	=106	=106
0F	[0f	0c	0a
=107	=107.	=107	=107
0BB-	0f_	0d	0b-
=108	=108.	=108	=108
[0F	0f]	1c	0a
.	.	[1A	.
=109	=109	=109	=109
0F]	0f	2A/]	1f
.	.	2B\	.
.	.	[1c	[1a
=110	=110.	=110	=110
0C	0e	2c\]	1a]
.	.	2B\	.
.	.	1c	[1g
=111	=111.	=111	=111
0D	[0d	0A	1g]
.	.	.	1f#i
=112	=112	=112	=112
0GG	0d]	1G	[0g
.	.	2r	.
.	.	2D/	.
=113	=113.	=113	=113
1.C	[0c	2.E/	0g]
.	.	4D/	.
.	.	2C/	.
2BB/	.	[2G/	.
=114	=114.	=114	=114
2.AA/	0c]	2G/]	0a
.	.	4F#i/	.
4GG/	.	4E/	.
1AA	.	1F#i	.
=115	=115	=115	=115
0GG;l	0B;l	0G;l	0d;l
!!LO:LB:i:g=z
=116||	=116||	=116||	=116||
*>B	*>B	*>B	*>B
*clefF4	*clefGv2	*clefGv2	*clefG2
*k[]	*k[]	*k[]	*k[]
*M2/1	*M2/1	*M2/1	*M2/1
*met(C|)	*met(C|)	*met(C|)	*met(C|)
!!section: Crucifixus
!!!OMD: Crucifixus
0C	0r	1G	[0e
.	.	1A	.
=117	=117	=117	=117
1C	1G	1G	0e]
1AA	1A	[1c	.
=118	=118	=118	=118
0C	1G	1c]	0e
.	[1E	[1c	.
=119	=119	=119	=119
1AA	1E]	2c\]	0a
.	.	2c\	.
1D	2F/	2A/	.
.	2F/	2d\	.
=120	=120	=120	=120
2C/	2E/	2e\	1a
2D\	2F/	1d	.
1E	1G	.	1g
.	.	2c#i\	.
=121	=121	=121	=121
[0D	1A	0d	[0f
.	2r	.	.
.	[2A/	.	.
=122	=122	=122	=122
0D]	4A/]	2r	0f]
.	4G/	.	.
.	4F/	1A	.
.	4E/	.	.
.	1F	.	.
.	.	2B\	.
=123	=123	=123	=123
1C	1G	1c	0e
[1AA	1r	2.C/	.
.	.	4D/	.
=124	=124	=124	=124
1AA]	1A	2E/	0r
.	.	2F/	.
1GG	1B-i	1G	.
=125	=125	=125	=125
1AA	1A	2E/	0r
.	.	2F/	.
1BB-i	2F/	1D	.
.	2G/	.	.
=126	=126	=126	=126
1AA	1A	2E/	0r
.	.	2F/	.
2GG/	2B-i\	2G/	.
2C/	[2A/	[2E/	.
=127	=127	=127	=127
2BB/	4A/]	2E/]	0r
.	4G/	.	.
2GG/	1G	1D	.
1AA	.	.	.
.	2F#i/	2C/	.
=128	=128	=128	=128
2.GG/	0G	1D	0r
4AA/	.	.	.
2BB/	.	2r	.
2C/	.	[2E/	.
=129	=129	=129	=129
2.AA/	0A	2E/]	0r
.	.	2F/	.
4BB/	.	.	.
2C/	.	2E/	.
2D\	.	2F/	.
=130	=130	=130	=130
0GG	0B	2.D/	0r
.	.	4E/	.
.	.	2D/	.
.	.	2G/	.
=131	=131	=131	=131
[0AA	[0A	1C	0e
.	.	[1c	.
=132	=132	=132	=132
0AA]	0A]	2c\]	1e
.	.	2B\	.
.	.	1c	[1a
=133	=133	=133	=133
1D	1F	2A/	1a]
.	.	1d	.
1E	1G	.	1g
.	.	2c#i\	.
=134	=134	=134	=134
0D	[0A	0d	1f
.	.	.	1f
=135	=135	=135	=135
2.AA/	1A]	1c	0e
4BB/	.	.	.
2C/	[1G	[1c	.
2E\	.	.	.
=136	=136	=136	=136
1D	2G/]	2c\]	0r
.	4F/	4B\	.
.	4E/	4A/	.
1D	1F	1B	.
=137	=137	=137	=137
0C	[0G	0c	1e
.	.	.	1e
=138	=138	=138	=138
[0GG	0G_	1r	1d
.	.	1d	[1g
=139	=139	=139	=139
0GG]	0G]	2d\	1g]
.	.	2e\	.
.	.	1d	1g
=140	=140	=140	=140
0G	1r	0B	1.g
.	[1E	.	.
.	.	.	2g/
=141	=141	=141	=141
1C	1E]	1c	1g
1E	1E	2B\	1g
.	.	2c\	.
=142	=142	=142	=142
1D	[0A	1d	1f
[1AA	.	1e	1r
=143	=143	=143	=143
1AA]	1A]	1r	1a
1r	1G	1e	1b-i
=144	=144	=144	=144
0D	0F	1f	1a
.	.	1d	1f
=145	=145	=145	=145
2.AA/	0E	1c	1a
4BB/	.	.	.
2C/	.	2r	2g/
2AA/	.	2c\	[2a/
=146	=146	=146	=146
2D\	1r	2B\	4a/]
.	.	.	4g/
2E\	.	4A/	1g
.	.	4G/	.
1D	1r	1A	.
.	.	.	2f#i/
=147	=147	=147	=147
2.E\	0B	1G	[0g
4F\	.	.	.
1G	.	2.E/	.
.	.	4F/	.
=148	=148	=148	=148
2.E\	0B	1G	0g]
4F\	.	.	.
1G	.	2.E/	.
.	.	4F/	.
=149	=149	=149	=149
1C	0E	1G	0r
2.AA/	.	[1A	.
4BB/	.	.	.
=150	=150	=150	=150
2C/	0r	1A]	2e/
2D\	.	.	2f/
2E\	.	1r	1g
[2C/	.	.	.
=151	=151	=151	=151
4C/]	0r	1A	2e/
4BB/	.	.	.
2AA/	.	.	2f/
1GG	.	1B-i	1g
=152	=152	=152	=152
2r	0r	2A/	1a
1D	.	2A/	.
.	.	2F/	1r
2BB/	.	2G/	.
=153	=153	=153	=153
2C/	0r	1A	0r
2.D\	.	.	.
.	.	2B-i\	.
4BB/	.	.	.
2C/	.	[2A/	.
=154	=154	=154	=154
2D\	0r	4A/]	0r
.	.	4G/	.
2GG/	.	1G	.
1AA	.	.	.
.	.	2F#i/	.
=155	=155	=155	=155
[0GG	1B	0G	1r
.	1B	.	1d
=156	=156	=156	=156
1GG]	0E	1B	1g
1r	.	1c	2g/
.	.	.	[2g/
=157	=157	=157	=157
0r	1B	2d\	2g/]
.	.	2d\	2g/
.	1B	2d\	2g/
.	.	2d\	2g/
=158	=158	=158	=158
0r	0B	2d\	0g
.	.	2d\	.
.	.	1d	.
=159	=159	=159	=159
1AA	0A	1e	1a
1D	.	2.d\	1f
.	.	4c\	.
=160	=160	=160	=160
1E	1G	1B	1g
1AA	2E/	1c	1a
.	2F/	.	.
=161	=161	=161	=161
1E	2G/	2B\	1r
.	2E/	2c\	.
1D	1F	1d	1f
=162	=162	=162	=162
0C	0E	1e	1g
.	.	1e	1g
=163	=163	=163	=163
1F	0r	2f\	0a
.	.	4e\	.
.	.	4d\	.
2r	.	1c	.
2F\	.	.	.
=164	=164	=164	=164
1A	0r	2r	1a
.	.	2c\	.
1G	.	2d\	1b-i
.	.	2e\	.
=165	=165	=165	=165
2F\	0r	2.f\	1a
2.D\	.	.	.
.	.	4e\	.
.	.	2d\	2f/
4E\	.	.	.
[2F\	.	[2c\	[2a/
=166	=166	=166	=166
4F\]	0r	4c\]	4a/]
4G\	.	4B\	4g/
2E\	.	4A/	1g
.	.	4G/	.
1D	.	1A	.
.	.	.	2f#i/
=167	=167	=167	=167
1E	0e	1G	0g
[1C	.	[1c	.
=168	=168	=168	=168
1C]	0e	1c]	2.e/
.	.	.	4f/
1C	.	1c	1g
=169	=169	=169	=169
0G	[0d	0B	1g
.	.	.	1g
=170	=170	=170	=170
0D	0d]	0A	1f
.	.	.	1a
=171	=171	=171	=171
1GG	0d	1B	1g
1D	.	1A	1f
=172	=172	=172	=172
0C	[0e	1c	0g
.	.	1c	.
=173	=173	=173	=173
2.C/	0e]	1G	2.e/
4D\	.	.	4f/
2E\	.	2B\	2g/
2C/	.	2c\	2g/
=174	=174	=174	=174
0G	0B	2d\	1g
.	.	2d\	.
.	.	1d	1g
=175	=175	=175	=175
1F	0r	1d	1a
2E\	.	1e	2.g/
[2C/	.	.	.
.	.	.	4f/
=176	=176	=176	=176
4C/]	0r	2e\	1e
4D\	.	.	.
4E\	.	2c\	.
4F\	.	.	.
2G\	.	1B	1d
2D\	.	.	.
=177	=177	=177	=177
1F	1r	1A	1a
1E	[1e	2r	1b
.	.	2G/	.
=178	=178	=178	=178
2.AA/	1e]	1A	1a
4BB/	.	.	.
1C	1e	1E	1g
=179	=179	=179	=179
1D	0d	2A/	2f/
.	.	2F/	2.a/
2BB/	.	2G/	.
.	.	.	4g/
2GG/	.	2B-i\	[2g/
=180	=180	=180	=180
1D	0d	1A	2g/]
.	.	.	2f#i/
1GG	.	1G	[1g
=181	=181	=181	=181
1.C	0e	2r	1g]
.	.	2G/	.
.	.	1c	1r
2D\	.	.	.
=182	=182	=182	=182
0E	1e	1B	2.e/
.	.	.	4f/
.	[1B	[1e	1g
=183	=183	=183	=183
0r	1B]	1e]	1g
.	1B	2e\	2g/
.	.	2e\	2g/
=184	=184	=184	=184
0r	0r	1e	1g
.	.	2d\	2f/
.	.	2c\	[2a/
=185	=185	=185	=185
0r	0r	2B\	2a/]
.	.	4A/	1g
.	.	4G/	.
.	.	1A	.
.	.	.	2f#i/
=186	=186	=186	=186
2r	0r	1G	1g
1G	.	.	.
.	.	2E/	1r
2F\	.	2F/	.
=187	=187	=187	=187
2E\	0r	1G	0r
4D\	.	.	.
4C/	.	.	.
1BB	.	1G	.
=188	=188	=188	=188
1AA	0r	1A	2e/
.	.	.	2f/
1E	.	2.G/	1g
.	.	4F/	.
=189	=189	=189	=189
1r	0r	1E	1g
2D\	.	2F/	1a
2AA/	.	2F/	.
=190	=190	=190	=190
2C/	0r	2E/	2g/
2D\	.	2F/	2f/
1E	.	1G	1e
=191	=191	=191	=191
1D	0r	1A	2f/
.	.	.	2f/
1A	.	1c	2e/
.	.	.	2f/
=192	=192	=192	=192
1B-i	0r	1d	1g
1A	.	[1e	1a
=193	=193	=193	=193
1c	0r	1e]	1a
1d	.	1f	1b-i
=194	=194	=194	=194
1A	0r	1e	1a
1B-	.	1d	2f/
.	.	.	2g/
=195	=195	=195	=195
1A	0r	1c	1a
2G\	.	2.d\	2b-i\
2F\	.	.	[2a/
.	.	4c\	.
=196	=196	=196	=196
2G\	0r	2B\	4a/]
.	.	.	4g/
2C/	.	2c\	1g
1D	.	1A	.
.	.	.	2f#i/
=197	=197	=197	=197
1E	[0e	1G	[0g
1C	.	[1c	.
=198	=198	=198	=198
1r	0e]	1c]	0g]
2.E\	.	1c	.
4F\	.	.	.
=199	=199	=199	=199
2G\	0e	1.B	1g
2G\	.	.	.
1G	.	.	1g
.	.	2B\	.
=200	=200	=200	=200
0F	0f	1c	1.a
.	.	1c	.
.	.	.	2a/
=201	=201	=201	=201
1.A	0e	1.c	2.a/
.	.	.	4b\
.	.	.	2cc\
[2G\	.	2B\	2g/
=202	=202	=202	=202
2G\]	0d	1A	1a
2F#i\	.	.	.
1G	.	1G	1b
=203	=203	=203	=203
2r	[0c	1r	2cc\
1C	.	.	4b\
.	.	.	4a/
.	.	2.E/	[1g
2C/	.	.	.
.	.	4F/	.
=204	=204	=204	=204
1C	0c_	1G	2g/]
.	.	.	4f/
.	.	.	4e/
1C	.	1G	[1e
=205	=205	=205	=205
1C	0c_	1G	1e]
1AA	.	1A	1r
=206	=206	=206	=206
1.C	0c]	2.G/	2.e/
.	.	4F/	4f/
.	.	[1E	1g
2C/	.	.	.
=207	=207	=207	=207
1C	[0c	0E_	1g
1C	.	.	2g/
.	.	.	2a/
=208	=208	=208	=208
2C/	0c]	1E]	2.g/
2C/	.	.	.
.	.	.	4f/
2C/	.	1G	1e
2C/	.	.	.
=209	=209	=209	=209
0GG	[0B	2G/	0d
.	.	2G/	.
.	.	2G/	.
.	.	2G/	.
=210	=210	=210	=210
2r	0B_	1E	0g
2.G\	.	.	.
.	.	1G	.
4F\	.	.	.
[2E\	.	.	.
=211	=211	=211	=211
2E\]	0B]	1.G	1r
4D\	.	.	.
4C/	.	.	.
1BB	.	.	1b
.	.	2G/	.
=212	=212	=212	=212
1AA	0r	1A	1cc
1E	.	2r	2b\
.	.	[2B\	2b\
=213	=213	=213	=213
2r	0r	2B\]	2b\
2AA/	.	2.c\	2a/
1C	.	.	2g/
.	.	4B\	.
.	.	[2A/	2a/
=214	=214	=214	=214
2D\	0r	2A/]	1b
2E\	.	2G/	.
2AA/	.	2A/	2cc\
[2E\	.	2B\	[2b\
=215	=215	=215	=215
2E\]	0r	2c\	4b\]
.	.	.	4a/
2D\	.	2d\	1a
1E	.	1B	.
.	.	.	2g#i/
=216	=216	=216	=216
0AA	1r	0A	1a
.	1E	.	1a
=217	=217	=217	=217
1r	1E	1B	1g
1AA	1E	1c	1e
=218	=218	=218	=218
1.D	[0A	2d\	1f
.	.	2d\	.
.	.	2d\	2r
2D\	.	2d\	[2f/
=219	=219	=219	=219
2D\	0A]	2d\	2f/]
2C/	.	2e\	2e/
1D	.	1d	1f
=220	=220	=220	=220
1GG	[0G	1B	2g/
.	.	.	2d/
2.C/	.	2c\	2e/
.	.	2c\	[2g/
4D\	.	.	.
=221	=221	=221	=221
2E\	0G_	2B\	2g/]
1C	.	2c\	4f/
.	.	.	4e/
.	.	1d	1d
2BB/	.	.	.
=222	=222	=222	=222
0C	0G_	1e	1c
.	.	2c\	2r
.	.	[2e\	[2c/
=223	=223	=223	=223
2C/	0G]	2e\]	2c/]
2BB/	.	1d	2d/
1E	.	.	1e
.	.	2c#i\	.
=224	=224	=224	=224
0D	0F	1d	1f
.	.	1d	1r
=225	=225	=225	=225
1C	0E	1e	1g
1AA	.	1c	1a
=226	=226	=226	=226
1E	0r	1B	1g
1C	.	2c\	1e
.	.	2c\	.
=227	=227	=227	=227
1D	0r	2A/	2f/
.	.	2B\	2f/
2C/	.	1c	2e/
4BB/	.	.	2f/
4AA/	.	.	.
=228	=228	=228	=228
1GG	1B	1d	0g
1BB	1B	1G	.
=229	=229	=229	=229
1AA	1E	1c	1a
1D	1r	1A	1f
=230	=230	=230	=230
1GG	1.B	[0d	2.g/
.	.	.	4f/
2G\	.	.	2g/
2D\	2A/	.	[2a/
=231	=231	=231	=231
1G	1B	1d]	4a/]
.	.	.	4g/
.	.	.	1g
1D	1A	1d	.
.	.	.	2f#i/
=232	=232	=232	=232
2E\	2G/	2B\	1g
1C	4F/	2.c\	.
.	4E/	.	.
.	2G/	.	1r
.	.	4B\	.
[2D\	[2F/	4A/	.
.	.	4G/	.
=233	=233	=233	=233
4D\]	4F/]	2B-\	0r
4C/	4E/	.	.
2AA/	1E	1A	.
1BB	.	.	.
.	2D/	2G/	.
=234	=234	=234	=234
*M3/1	*M3/1	*M3/1	*M3/1
*met(C|3)	*met(C|3)	*met(C|3)	*met(C|3)
1.AA	0.E	0A	1r
.	.	.	1r
2BB/	.	.	.
2C/	.	1E	1g
2D\	.	.	.
=235	=235	=235	=235
1.E	0.r	0B	0g
2F\	.	.	.
2G\	.	1B	1e
4F\	.	.	.
4G\	.	.	.
=236	=236	=236	=236
1.A	0.r	0c	1f
.	.	.	1.e
2E\	.	.	.
2G\	.	2B\	.
2F\	.	2A/	2d/
=237	=237	=237	=237
1D	0.r	0A	0d
0E	.	.	.
.	.	1G	1c#i
=238	=238	=238	=238
1.D	0.r	0A	0.d
2C/	.	.	.
1BB	.	1B	.
=239	=239	=239	=239
2.AA/	0E	1.c	0.r
4BB/	.	.	.
2.C/	.	.	.
.	.	4B\	.
4D\	.	4A/	.
1E	1E	1G	.
=240	=240	=240	=240
0.D	0A	1.F	1.d
.	.	2G/	2e/
.	1A	2A/	2f/
.	.	2B\	2g/
=241	=241	=241	=241
0.r	1A	0c	1a
.	0G	.	1.b-i
.	.	1d	.
.	.	.	2a/
=242	=242	=242	=242
0.r	1F	1A	0a
.	0E	0B	.
.	.	.	1g
=243	=243	=243	=243
0AA	0.r	1.A	0.a
.	.	2B\	.
1AA	.	1c	.
=244	=244	=244	=244
0GG	0B	0d	0.r
1GG	1B	1G	.
=245	=245	=245	=245
1.AA	0.E	1.c	0a
2BB/	.	2d\	.
1C	.	1e	1g
=246	=246	=246	=246
0D	0.r	0A	0f
1C	.	[1c	1g
=247	=247	=247	=247
0F	0.r	1c]	1.a
.	.	0d	.
.	.	.	2g/
1F	.	.	2.f/
.	.	.	4e/
=248	=248	=248	=248
1.E	1B	1.e	1.g
.	1B	.	.
2D\	.	2f\	2f/
1E	1B	1g	2.e/
.	.	.	4d/
=249	=249	=249	=249
1AA	0A	1c	1e
1D	.	1d	1.f
1E	1G	1B	.
.	.	.	2e/
=250	=250	=250	=250
1C	1E	1c	1e
0D	0F	0A	1.d
.	.	.	2c/
=251	=251	=251	=251
1.G	[0.El	0.B	[0.el
2F\	.	.	.
2E\	.	.	.
2D\	.	.	.
=252	=252	=252	=252
2.C/	0.E_	0.c	0.e_
4BB/	.	.	.
2AA/	.	.	.
2GG/	.	.	.
1AA	.	.	.
=253	=253	=253	=253
*^	*	*	*
0.EEl\	0.El/	0.E]	0.Bl	0.e]
*v	*v	*	*	*
==	==	==	==
*-	*-	*-	*-
!!!RDF**kern: l=long note in original notation
!!!RDF**kern: i=editorial accidental
!!!ENC:	Jesse Rodin; Victoria Chang 2012/02/04
!!!END:	2012/02/04/
!!!EED:	Jesse Rodin
!!!EEV:	2012/08/03/
!!attribution-level@Jos: 5 (doubtful)
!!!ONB:	Translated from MusicXML and edited on 2012/06/27/ by Craig Sapp
!!muse2ps: T^@{OPR}^u^@{ONM}{. }@{OTL}^C^Comp&egrave;re/Josquin?\n@{SCT}^i2I150v85,85,85,150Q16
